!!!SOCIAL_FUNCTION:	miscellaneous songs
!!!PDT:	1956
!!!OTL: No_235_Song_to_a_Motherless_Boy.krn
!!!LANG: Non-Tone
!!!LING_GROUP: Muskogean
!!!REG: Florida
**kern
*staff1
=1-
*clefG2
*k[f#c#g#d#a#]
*M3/4
2r
8.r
16B/
=2
2f#/
8.r
16b\
=3||
*M2/4
4f#/
(8e/L
8d#/J
=4||
*M3/4
2B/)
4r
=5||
*M2/4
8.f#;/L
16d#/Jk
8.d#/L
16c#/Jk
=6||
*M3/4
2d#/
8.r
16f#/
=7||
*M2/4
8e/L
8d#/J
12e/L
12d#/
12d#/J
=8||
*M3/4
2B/
8.r
16b\
=9||
*M3/8
8.f#/L
16d#/L
16d#/
16c#/JJ
=10||
*M3/4
2f#/
8.r
16g#/
=11||
*M2/4
4f#/
8e/L
8d#/J
=12||
*M3/4
2B/
8.r
16f#/
=13||
*M2/4
8.f#/L
16d#/Jk
8e/L
8d#/J
=14||
*M3/4
2e/
4r
=15||
*M2/4
4f#/
8e/L
8d#/J
=16
4B/
8.r
16c#/
=17
8.B/L
16G#/Jk
4G#/
=18
4B/
8.r
16b\
=19
4f#/
(8e/L
8d#/J)
=20
4f#/
4r
=21
4f#/
8e/L
8d#/J
=22||
*M3/4
2B/
8.r
16b\
=23||
*M2/4
8.f#/L
16e/Jk
4d#/
=24
4e/
4r
=25
(4f#/
8e/L
8d#/J)
=26
4B/
4r
=27
4B/
8e/L
8d#/J
=28||
*M3/4
2e/
4r
=29||
*M2/4
(8e/L
8d#/J
8e/L
8d#/J)
=30
2B/
==
*-
